source/img/icon-person.svg

<svg width="19" height="24" viewBox="0 0 19 24" fill="none" xmlns="http://www.w3.org/2000/svg">
<path d="M12.9964 15.2987H14.4411C16.0675 15.2987 17.6567 16.516 17.3864 18.0817L17.0918 19.5659C16.6872 21.2936 15.7729 22.3489 14.1466 22.5H4.87191C3.24553 22.3489 2.36932 21.0334 1.92664 19.5659L1.63211 18.0817C1.27368 16.5627 2.95101 15.2987 4.57738 15.2987H5.98228M4.51113 6.52862C4.17831 6.52862 3.84579 6.81026 3.84579 7.1573V8.41438C3.84579 8.76114 4.14385 9.04334 4.51113 9.04334C4.51113 9.04334 5.50898 11.5572 6.17402 12.5004C6.58607 13.0848 7.17188 14.4877 9.50012 14.4877C11.8284 14.4877 12.4139 13.0848 12.8262 12.5004C13.4915 11.5572 14.4891 9.04334 14.4891 9.04334C14.8561 9.04334 15.1544 8.76114 15.1544 8.41438V7.1573C15.1544 6.81026 14.8561 6.52862 14.4891 6.52862V5.58573C14.4891 3.38577 13.172 1.5 9.50012 1.5C5.84121 1.5 4.51113 3.38549 4.51113 5.58573V6.52862Z" stroke="white" stroke-miterlimit="10" stroke-linecap="round" stroke-linejoin="round" fill="none"/>
</svg>

<svg width="19" height="24" fill="none" xmlns="http://www.w3.org/2000/svg"><path d="M12.996 15.299h1.445c1.626 0 3.216 1.217 2.945 2.783l-.294 1.484c-.405 1.728-1.32 2.783-2.945 2.934H4.872c-1.626-.151-2.503-1.467-2.945-2.934l-.295-1.484c-.358-1.52 1.319-2.783 2.945-2.783h1.405m-1.47-8.77c-.334 0-.666.281-.666.628v1.257c0 .347.298.63.665.63 0 0 .998 2.513 1.663 3.456.412.585.998 1.988 3.326 1.988 2.328 0 2.914-1.403 3.326-1.988.665-.943 1.663-3.457 1.663-3.457.367 0 .665-.282.665-.629V7.157c0-.347-.298-.628-.665-.628v-.943c0-2.2-1.317-4.086-4.989-4.086-3.659 0-4.989 1.885-4.989 4.086v.943z" stroke="#fff" stroke-miterlimit="10" stroke-linecap="round" stroke-linejoin="round"/></svg>
